X:1
T:Title
%%score 1 { 2 | 3 }
L:1/8
Q:1/4=105
M:6/8
K:G
V:1 treble nm="Grand Piano, Soprano"
V:2 treble nm="Choir Pad, A Bright &amp;  Glorious Kingdom"
V:3 bass 
V:1
 G [GB]2 [GB][Ac][Bd] | [ce] [Bd]2- [Bd] [GB]2 | [GB] [Ac]2 [Ac] [GB]2 | %3
w: By~William~Batchelder~Bradbury * * * *|||
 [FA] [GB]2- [GB]2- [GB]/ z/ | G [GB]2 [GB][Ac][Bd] | [ce] [Bd]2- [Bd] [GB]2 | G [FA]2 [Ac] [GB]2 | %7
w: ||||
 [FA] G2- G2- G/ z/ | [Bd] [Bd]2- [Bd] [GB]2 | z [GB]2- [GB] [DG]2 | [GB] [FA]2 [GB][Ac][Bd] | %11
w: ||||
 [ce] [Bd]2- [Bd] [GB]2 | [Bd] [ce]2- [ce] [Ac]2 | [ce] [Bd]2- [Bd] [GB]2 | [GB] [FA]2 [FA] [Fd]2 | %15
w: ||||
 [DF] [DG]2- [DG]3- | [DG]3 z3 |] %17
w: ||
V:2
 B, D2 DCG, | G, G,2- G,/ z/ D2 | B, A,2 A,[K:treble] D2 | D D2- D2- D/ z/ | B, D2 D C2 | %5
 G, G,2- G,/ z/ D2 | B, A,2 A, D2 | C B,2- B,2- B,/ z/ | G, G,2- G,/ z/ G,2 | %9
 z[K:treble] D2- D B,2 | D D2 DC[K:bass]B, | A, B,2- B, D2 | D D2- D C2 | %13
 G,[K:bass] G,2- G,/ z/ B,2 | D B,2 D A,2 | C B,2- B,3- | B,3 z3 |] %17
V:3
 G, G,2 G,E,D, | .C,3 z G,2 | G, D,2 D, D,2 | D, G,2- G,2- G,/ z/ | G, G,2 G,E,D, | .C,3 z G,2 | %6
 G, D,2 D, D,2 | D, G,2- G,2- G,/ z/ | z6 | z G,2- G, G,,2 | G, D,2 D,D,D, | D, G,2- G, G,2 | %12
 G, G,2- G, C,2 | .C,3 z G,,2 | B,, D,2 D, D,2 | D, G,2- G,3- | G,3 z3 |] %17

